package/contents/images/bulb-white.svg

<?xml version="1.0" encoding="UTF-8" standalone="no"?>
<svg xmlns="http://www.w3.org/2000/svg" version="1.1" xmlns:cc="http://creativecommons.org/ns#" xmlns:dc="http://purl.org/dc/elements/1.1/" height="22" viewBox="0 0 21.999999 21.999999" width="22" xmlns:rdf="http://www.w3.org/1999/02/22-rdf-syntax-ns#">
<defs>
<style id="current-color-scheme" type="text/css">.ColorScheme-Text {
        color:#ffffff;
      }</style>
</defs>
<g transform="translate(0 -1.03e3)">
<g transform="matrix(.422 0 0 .422 228 597)">
<g transform="translate(-2.37 2.37)">
<path style="text-rendering:auto;color-rendering:auto;color:#000000;isolation:auto;mix-blend-mode:normal;shape-rendering:auto;solid-color:#000000;image-rendering:auto" d="m11 2c-3.09 0-5.6 1.57-5.6 4.67 0 0.79 0.4 1.58 0.73 2.3l0.01 0.03c1.59 2.8 2.25 4 2.58 6h2.28 2.3c0.3-2 1-3.2 2.6-6v-0.03c0.3-0.72 0.7-1.51 0.7-2.3 0-3.1-2.5-4.67-5.6-4.67zm0 1c2.6 0 4.6 1.33 4.6 3.95 0 0.6-0.5 1.34-0.7 1.95v0.02c-1.4 2.38-2.1 4.08-2.3 5.08h-1.6-1.5c-0.3-1-1.02-2.7-2.36-5.08l-0.01-0.02c-0.28-0.61-0.75-1.42-0.75-1.95 0-2.62 2-3.95 4.62-3.95zm-2 13l-0.02 1h4.02v-1h-4zm0 2l-0.02 1h4.02v-1h-4z" transform="matrix(2.37 0 0 2.37 -537 1.02e3)" fill="#ffffff"/>
</g>
</g>
</g>
</svg>

<?xml version="1.0" encoding="UTF-8" standalone="no"?>
<svg xmlns="http://www.w3.org/2000/svg" version="1.1" xmlns:cc="http://creativecommons.org/ns#" xmlns:dc="http://purl.org/dc/elements/1.1/" height="22" viewBox="0 0 21.999999 21.999999" width="22" xmlns:rdf="http://www.w3.org/1999/02/22-rdf-syntax-ns#">
<defs>
<style id="current-color-scheme" type="text/css">.ColorScheme-Text {
        color:#ffffff;
      }</style>
</defs>
  <g
     transform="translate(-0.27966098,-1028.0424)"
     id="g7">
    <g
       transform="matrix(0.422,0,0,0.422,228,597)"
       id="g9">
      <g
         transform="translate(-2.37,2.37)"
         id="g11">
        <path
           style="color:#000000;isolation:auto;mix-blend-mode:normal;solid-color:#000000;fill:#ffffff;color-rendering:auto;image-rendering:auto;shape-rendering:auto;text-rendering:auto"
           d="M 11,2 C 7.91,2 5.4,3.57 5.4,6.67 c 0,0.79 0.4,1.58 0.73,2.3 L 6.14,9 c 1.59,2.8 2.25,4 2.58,6 l 2.28,0 2.3,0 c 0.3,-2 1,-3.2 2.6,-6 l 0,-0.03 C 16.2,8.25 16.6,7.46 16.6,6.67 16.6,3.57 14.1,2 11,2 Z m 0,1 c 2.6,0 4.6,1.33 4.6,3.95 0,0.6 -0.5,1.34 -0.7,1.95 l 0,0.02 C 13.5,11.3 12.8,13 12.6,14 L 11,14 9.5,14 C 9.2,13 8.48,11.3 7.14,8.92 L 7.13,8.9 C 6.85,8.29 6.38,7.48 6.38,6.95 6.38,4.33 8.38,3 11,3 Z M 9,16 8.98,17 13,17 13,16 9,16 Z m 0,2 -0.02,1 4.02,0 0,-1 -4,0 z"
           transform="matrix(2.37,0,0,2.37,-537,1020)"
           id="path13"
            />
      </g>
    </g>
  </g>
</svg>
